X:117
T:Many a Wild Night
R:polka
S:Matt Cranitch & Donal Murphy
F:http://www.youtube.com/watch?v=7VGwMnppEOQ
Z:id:hn-polka-117
M:2/4
L:1/8
K:D
Ad dB | AF FD | GB BA | F/G/A D>F | Ad dB | AF FD | GB BA | D2 D>F :|
|: Ad fa | ge e>c | Ac e/f/g | fd d/e/d/B/ | Ad fa | ge e>d | ce ba | d2 d>B :|

